X: 32265
T: Pick Your Partner
R: reel
M: 4/4
K: Bminor
de|f z BA Bcde|fBBd e2de|fBcA Bcde|1 fbaf e2:|2 fedf edBc||
d z fd adfd|(3ded fd edBc|d z fd Adfd|bgaf edBc|
d2fd adfd|d2fd edBc|defg ~a3z|bgaf ef||

